icons/outline/adjustments-down.svg

<!--
category: System
tags: [settings, decrease, lessen, reduce, lower, diminish, drop, fall, descend, deplete]
version: "2.10"
unicode: "f801"
-->
<svg
  xmlns="http://www.w3.org/2000/svg"
  width="24"
  height="24"
  viewBox="0 0 24 24"
  fill="none"
  stroke="currentColor"
  stroke-width="2"
  stroke-linecap="round"
  stroke-linejoin="round"
>
  <path d="M4 10a2 2 0 1 0 4 0a2 2 0 0 0 -4 0m2 -6v4m0 4v8m7.945 -4.47a2 2 0 1 0 -1.945 2.47m0 -14v10m0 4v2m4 -13a2 2 0 1 0 4 0a2 2 0 0 0 -4 0m2 -3v1m0 4v3m1 4v6m3 -3l-3 3l-3 -3" />
</svg>

<!--
category: System
tags: [settings, decrease, lessen, reduce, lower, diminish, drop, fall, descend, deplete]
version: "2.10"
unicode: "f801"
-->
<svg
  xmlns="http://www.w3.org/2000/svg"
  width="24"
  height="24"
  viewBox="0 0 24 24"
  fill="none"
  stroke="currentColor"
  stroke-width="2"
  stroke-linecap="round"
  stroke-linejoin="round"
>
    <path d="M4 10a2 2 0 1 0 4 0a2 2 0 0 0 -4 0M6 4v4M6 12v8M13.945 15.53a2 2 0 1 0 -1.945 2.47M12 4v10M12 18v2M16 7a2 2 0 1 0 4 0a2 2 0 0 0 -4 0M18 4v1M18 9v3M19 16v6M22 19l-3 3l-3 -3" />
</svg>
